svg/sleep-mode.svg

<?xml version="1.0" encoding="UTF-8"?>
<svg xmlns="http://www.w3.org/2000/svg" xmlns:xlink="http://www.w3.org/1999/xlink" width="32" height="32" viewBox="0 0 32 32">
<path fill-rule="nonzero" fill="rgb(0%, 0%, 0%)" fill-opacity="1" d="M 26.363281 2.558594 L 5.636719 2.558594 C 3.9375 2.5625 2.5625 3.9375 2.558594 5.636719 L 2.558594 26.363281 C 2.5625 28.0625 3.9375 29.4375 5.636719 29.441406 L 26.363281 29.441406 C 28.0625 29.4375 29.4375 28.0625 29.441406 26.363281 L 29.441406 5.636719 C 29.4375 3.9375 28.0625 2.5625 26.363281 2.558594 M 14.078125 23.039062 C 14.085938 23.273438 13.96875 23.492188 13.765625 23.613281 C 13.566406 23.734375 13.3125 23.734375 13.113281 23.613281 C 12.910156 23.492188 12.792969 23.273438 12.800781 23.039062 L 12.800781 8.960938 C 12.792969 8.726562 12.910156 8.507812 13.113281 8.386719 C 13.3125 8.265625 13.566406 8.265625 13.765625 8.386719 C 13.96875 8.507812 14.085938 8.726562 14.078125 8.960938 Z M 19.199219 23.039062 C 19.207031 23.273438 19.089844 23.492188 18.886719 23.613281 C 18.6875 23.734375 18.433594 23.734375 18.234375 23.613281 C 18.03125 23.492188 17.914062 23.273438 17.921875 23.039062 L 17.921875 8.960938 C 17.914062 8.726562 18.03125 8.507812 18.234375 8.386719 C 18.433594 8.265625 18.6875 8.265625 18.886719 8.386719 C 19.089844 8.507812 19.207031 8.726562 19.199219 8.960938 Z M 19.199219 23.039062 "/>
</svg>

<svg role="img" viewBox="0 0 32 32" height="32" width="32" xmlns="http://www.w3.org/2000/svg"><path d="M26.363 2.559H5.637a3.084 3.084 0 0 0-3.078 3.078v20.726a3.084 3.084 0 0 0 3.078 3.078h20.726a3.084 3.084 0 0 0 3.078-3.078V5.637a3.084 3.084 0 0 0-3.078-3.078m-12.285 20.48a.639.639 0 1 1-1.277 0V8.961a.639.639 0 1 1 1.277 0Zm5.121 0a.639.639 0 1 1-1.277 0V8.961a.639.639 0 1 1 1.277 0Zm0 0"/></svg>
